assets/svg/icon_profile_bio.svg

<svg width="24" height="24" viewBox="0 0 24 24" fill="none" xmlns="http://www.w3.org/2000/svg">
<g id="icon/profile/bio">
<path id="Vector" d="M8.79687 12H15.1969M8.79687 8.80005H15.1969M8.79687 15.2H12.7969M11.9969 19.2C8.60279 19.2 6.90576 19.2 5.85096 18.146C4.79688 17.0904 4.79688 15.3941 4.79688 12C4.79688 8.60597 4.79688 6.90893 5.85095 5.85485C6.90647 4.80005 8.60279 4.80005 11.9969 4.80005C15.391 4.80005 17.088 4.80005 18.1421 5.85485C19.1969 6.90821 19.1969 8.60597 19.1969 12C19.1969 15.3941 19.1969 17.0912 18.1421 18.146C17.0887 19.2 15.391 19.2 11.9969 19.2Z" stroke="#494949" stroke-width="1.2" stroke-linecap="round"/>
</g>
</svg>

<svg xmlns="http://www.w3.org/2000/svg" width="24" height="24" fill="none"><path stroke="#494949" stroke-linecap="round" stroke-width="1.2" d="M8.797 12h6.4m-6.4-3.2h6.4m-6.4 6.4h4m-.8 4c-3.394 0-5.091 0-6.146-1.054C4.797 17.09 4.797 15.394 4.797 12s0-5.091 1.054-6.145C6.906 4.8 8.603 4.8 11.997 4.8s5.091 0 6.145 1.055c1.055 1.053 1.055 2.751 1.055 6.145s0 5.091-1.055 6.146C17.09 19.2 15.391 19.2 11.997 19.2Z"/></svg>
